src/sources/forus-platform/resources/_platform-common/assets/img/features/icons/digid/icon-step-1.svg

<svg width="24" height="24" viewBox="0 0 24 24" fill="none" xmlns="http://www.w3.org/2000/svg">
    <path d="M21.3999 7.5C22.1999 8.3 22.1999 9.6 21.3999 10.3L18.5999 13.1L10.7999 5.3L13.5999 2.5C14.3999 1.7 15.6999 1.7 16.3999 2.5L18.1999 4.3L21.1999 1.3L22.5999 2.7L19.5999 5.7L21.3999 7.5ZM15.5999 13.3L14.1999 11.9L11.3999 14.7L9.2999 12.6L12.0999 9.8L10.6999 8.4L7.8999 11.2L6.3999 9.8L3.5999 12.6C2.7999 13.4 2.7999 14.7 3.5999 15.4L5.3999 17.2L1.3999 21.2L2.7999 22.6L6.7999 18.6L8.5999 20.4C9.3999 21.2 10.6999 21.2 11.3999 20.4L14.1999 17.6L12.7999 16.2L15.5999 13.3Z" fill="white"/>
</svg>

<svg width="24" height="24" fill="none" xmlns="http://www.w3.org/2000/svg"><path d="M21.4 7.5c.8.8.8 2.1 0 2.8l-2.8 2.8-7.8-7.8 2.8-2.8c.8-.8 2.1-.8 2.8 0l1.8 1.8 3-3 1.4 1.4-3 3 1.8 1.8Zm-5.8 5.8-1.4-1.4-2.8 2.8-2.1-2.1 2.8-2.8-1.4-1.4-2.8 2.8-1.5-1.4-2.8 2.8c-.8.8-.8 2.1 0 2.8l1.8 1.8-4 4 1.4 1.4 4-4 1.8 1.8c.8.8 2.1.8 2.8 0l2.8-2.8-1.4-1.4 2.8-2.9Z" fill="#fff"/></svg>
